img/g_bg.svg

<svg width="2504" height="154" fill="none" xmlns="http://www.w3.org/2000/svg"><path d="M1932.54 115.192c-.51 5.248-6.14 7.68-6.14 7.68h26.88s-5.63-3.328-6.02-7.68a640.41 640.41 0 0 1-1.4-42.624V59.64c0-15.872.12-29.696 1.66-33.152h27.78c15.1 0 20.35 23.68 20.35 23.68s.13-11.648.89-18.816c.64-6.4 2.18-10.368 2.18-10.368s-7.42 1.024-18.43 1.28h-52.35s3.96 1.792 4.48 4.864c1.4 8.064 1.4 22.528 1.4 45.44 0 20.864-.64 34.816-1.28 42.624Zm90.97-44.8 11.65-41.6c2.17 7.296 6.14 21.12 10.88 41.6h-22.53Zm-27.26 52.48h20.73s-6.27-1.92-6.27-6.144c0-.384 0-.896.13-1.28l11.39-40.832h24.83c4.1 18.56 7.81 33.024 7.81 41.216 0 4.096-6.27 7.04-6.27 7.04h27.01s-4.23-1.92-5.76-7.04c-2.44-8.192-6.79-23.296-11.27-43.264-4.99-21.76-7.29-35.968-8.45-43.52 0-.384-.12-.64-.12-.896 0-4.48 5.11-5.888 5.11-5.888h-29.69s4.61 2.176 4.61 4.096v.256c-7.81 33.92-16.26 63.872-25.35 88.32-1.79 4.736-8.44 7.936-8.44 7.936Zm163.22-7.168c-2.43-8.192-6.66-23.296-11.14-43.264-4.99-21.76-7.42-35.968-8.57-43.52 0-.384-.13-.64-.13-.896 0-4.48 5.25-5.76 5.25-5.76h-29.83s5 2.048 5 5.248c0 5.888-4.87 21.504-11.52 44.544a697.394 697.394 0 0 1-13.96 42.88c-1.4 4.096-8.7 8.064-8.7 8.064h20.86s-6.14-1.92-6.14-6.144c0-.384 0-.896.13-1.28l24.32-86.4c2.3 7.68 6.4 22.016 11.26 43.264 4.48 19.584 8.32 34.688 8.32 43.264 0 4.096-6.27 7.296-6.27 7.296h27.01s-4.35-2.176-5.89-7.296Zm22.04 2.56c-.51 2.304-4.61 4.608-4.61 4.608h48.38c13.19 0 22.66 1.664 22.66 1.664s-1.54-6.4-2.3-11.52c-.77-6.4-.9-17.792-.9-17.792s-5.25 23.552-20.22 23.68h-27.91c-.51-6.144-1.53-20.48-1.66-44.16h19.45c10.37.384 13.19 7.04 13.19 7.04V63.352s-2.43 6.656-13.31 6.912l-19.33.128c.13-21.12 1.02-36.736 1.66-43.904h27.78c15.1 0 20.35 23.296 20.35 23.296s.13-11.264.9-17.792c.76-5.12 2.3-11.392 2.3-11.392s-9.47 1.664-22.66 1.664h-48.38s4.1 1.92 4.35 4.224c.64 7.296 1.67 23.424 1.67 45.824 0 25.216-.9 39.68-1.41 45.952Zm112.19-44.8c14.21 0 25.6-11.52 25.6-25.6 0-14.208-11.52-25.856-25.72-25.856l-24.84.256h-9.34s3.97 1.408 4.22 3.072c.9 7.552 1.8 23.168 1.8 47.232 0 24.32-1.03 39.296-1.54 45.952-.38 2.176-4.48 4.352-4.48 4.352h24.06s-4.09-1.536-4.35-3.968c-.89-5.504-1.66-18.944-1.66-40.192v-5.12l16.25-.128Zm-4.09-47.104c10.88.512 19.45 10.496 19.45 21.504 0 10.88-9.08 21.504-20.09 21.504h-11.52c.13-20.608 1.15-35.968 1.66-42.88 2.43-.128 5.12-.128 7.55-.128h2.95Zm45.77 91.904c-.51 2.304-4.6 4.608-4.6 4.608h48.38c13.18 0 22.66 1.664 22.66 1.664s-1.54-6.4-2.31-11.52c-.77-6.4-.89-17.792-.89-17.792s-5.25 23.552-20.23 23.68h-27.9c-.51-6.144-1.54-20.48-1.67-44.16h19.46c10.37.384 13.18 7.04 13.18 7.04V63.352s-2.43 6.656-13.31 6.912l-19.33.128c.13-21.12 1.03-36.736 1.67-43.904h27.77c15.11 0 20.36 23.296 20.36 23.296s.12-11.264.89-17.792c.77-5.12 2.31-11.392 2.31-11.392s-9.48 1.664-22.66 1.664h-48.38s4.09 1.92 4.35 4.224c.64 7.296 1.66 23.424 1.66 45.824 0 25.216-.89 39.68-1.41 45.952Zm107.08-70.4c0-11.008 8.58-20.864 19.46-21.376 1.28-.128 2.56-.128 3.96-.128 3.46 0 7.17.256 10.37.512.64.896 1.15 1.92 1.28 3.072.77 5.888.9 17.28.9 29.952v9.6h-15.87c-11.01 0-20.1-10.624-20.1-21.632Zm49.28 67.328c-.64-7.808-1.28-21.76-1.28-42.624 0-19.712.77-34.688 1.41-42.88.51-5.12 6.4-7.424 6.4-7.424h-15.23l-25.09-.128c-14.21 0-25.73 11.52-25.73 25.728 0 13.44 10.24 24.448 23.42 25.472l-30.33 37.888-.26.256c-5.89 8.192-14.33 11.264-14.33 11.264l29.95.128s-5.63-1.792-5.63-4.864c0-.512.12-1.28.64-1.92l34.04-42.496 8.71.128c0 19.328-.77 32.896-1.28 40.704-.39 4.352-6.27 8.448-6.27 8.448h27s-5.63-2.432-6.14-7.68ZM12.544 115.192c-.512 5.248-6.144 7.68-6.144 7.68h26.88s-5.632-3.328-6.016-7.68a637.426 637.426 0 0 1-1.408-42.624V59.64c0-15.872.128-29.696 1.664-33.152h27.776c15.104 0 20.352 23.68 20.352 23.68s.128-11.648.896-18.816c.64-6.4 2.176-10.368 2.176-10.368s-7.424 1.024-18.432 1.28H7.936s3.968 1.792 4.48 4.864c1.408 8.064 1.408 22.528 1.408 45.44 0 20.864-.64 34.816-1.28 42.624Zm90.965-44.8 11.648-41.6c2.176 7.296 6.144 21.12 10.88 41.6h-22.528Zm-27.264 52.48h20.736s-6.272-1.92-6.272-6.144c0-.384 0-.896.128-1.28l11.392-40.832h24.832c4.096 18.56 7.808 33.024 7.808 41.216 0 4.096-6.272 7.04-6.272 7.04h27.008s-4.224-1.92-5.76-7.04a649.485 649.485 0 0 1-11.264-43.264c-4.992-21.76-7.296-35.968-8.448-43.52 0-.384-.128-.64-.128-.896 0-4.48 5.12-5.888 5.12-5.888h-29.696s4.608 2.176 4.608 4.096v.256c-7.808 33.92-16.256 63.872-25.344 88.32-1.792 4.736-8.448 7.936-8.448 7.936Zm163.225-7.168c-2.432-8.192-6.656-23.296-11.136-43.264-4.992-21.76-7.424-35.968-8.576-43.52 0-.384-.128-.64-.128-.896 0-4.48 5.248-5.76 5.248-5.76h-29.824s4.992 2.048 4.992 5.248c0 5.888-4.864 21.504-11.52 44.544a703.115 703.115 0 0 1-13.952 42.88c-1.408 4.096-8.704 8.064-8.704 8.064h20.864s-6.144-1.92-6.144-6.144c0-.384 0-.896.128-1.28l24.32-86.4c2.304 7.68 6.4 22.016 11.264 43.264 4.48 19.584 8.32 34.688 8.32 43.264 0 4.096-6.272 7.296-6.272 7.296h27.008s-4.352-2.176-5.888-7.296Zm22.038 2.56c-.512 2.304-4.608 4.608-4.608 4.608h48.384c13.184 0 22.656 1.664 22.656 1.664s-1.536-6.4-2.304-11.52c-.768-6.4-.896-17.792-.896-17.792s-5.248 23.552-20.224 23.68h-27.904c-.512-6.144-1.536-20.48-1.664-44.16h19.456c10.368.384 13.184 7.04 13.184 7.04V63.352s-2.432 6.656-13.312 6.912l-19.328.128c.128-21.12 1.024-36.736 1.664-43.904h27.776c15.104 0 20.352 23.296 20.352 23.296s.128-11.264.896-17.792c.768-5.12 2.304-11.392 2.304-11.392s-9.472 1.664-22.656 1.664H256.9s4.096 1.92 4.352 4.224c.64 7.296 1.664 23.424 1.664 45.824 0 25.216-.896 39.68-1.408 45.952Zm112.196-44.8c14.208 0 25.6-11.52 25.6-25.6 0-14.208-11.52-25.856-25.728-25.856l-24.832.256H339.4s3.968 1.408 4.224 3.072c.896 7.552 1.792 23.168 1.792 47.232 0 24.32-1.024 39.296-1.536 45.952-.384 2.176-4.48 4.352-4.48 4.352h24.064s-4.096-1.536-4.352-3.968c-.896-5.504-1.664-18.944-1.664-40.192v-5.12l16.256-.128Zm-4.096-47.104c10.88.512 19.456 10.496 19.456 21.504 0 10.88-9.088 21.504-20.096 21.504h-11.52c.128-20.608 1.152-35.968 1.664-42.88 2.432-.128 5.12-.128 7.552-.128h2.944Zm45.775 91.904c-.512 2.304-4.608 4.608-4.608 4.608h48.384c13.184 0 22.656 1.664 22.656 1.664s-1.536-6.4-2.304-11.52c-.768-6.4-.896-17.792-.896-17.792s-5.248 23.552-20.224 23.68h-27.904c-.512-6.144-1.536-20.48-1.664-44.16h19.456c10.368.384 13.184 7.04 13.184 7.04V63.352s-2.432 6.656-13.312 6.912l-19.328.128c.128-21.12 1.024-36.736 1.664-43.904h27.776c15.104 0 20.352 23.296 20.352 23.296s.128-11.264.896-17.792c.768-5.12 2.304-11.392 2.304-11.392s-9.472 1.664-22.656 1.664h-48.384s4.096 1.92 4.352 4.224c.64 7.296 1.664 23.424 1.664 45.824 0 25.216-.896 39.68-1.408 45.952Zm107.076-70.4c0-11.008 8.576-20.864 19.456-21.376 1.28-.128 2.56-.128 3.968-.128 3.456 0 7.168.256 10.368.512.64.896 1.152 1.92 1.28 3.072.768 5.888.896 17.28.896 29.952v9.6h-15.872c-11.008 0-20.096-10.624-20.096-21.632Zm49.28 67.328c-.64-7.808-1.28-21.76-1.28-42.624 0-19.712.768-34.688 1.408-42.88.512-5.12 6.4-7.424 6.4-7.424h-15.232l-25.088-.128c-14.208 0-25.728 11.52-25.728 25.728 0 13.44 10.24 24.448 23.424 25.472l-30.336 37.888-.256.256c-5.888 8.192-14.336 11.264-14.336 11.264l29.952.128s-5.632-1.792-5.632-4.864c0-.512.128-1.28.64-1.92l34.048-42.496 8.704.128c0 19.328-.768 32.896-1.28 40.704-.384 4.352-6.272 8.448-6.272 8.448h27.008s-5.632-2.432-6.144-7.68Z" fill="#242424"/></svg>

<svg width="2504" height="154" viewBox="0 0 2504 154" fill="none" xmlns="http://www.w3.org/2000/svg">
<path d="M1932.54 115.192C1932.03 120.44 1926.4 122.872 1926.4 122.872H1953.28C1953.28 122.872 1947.65 119.544 1947.26 115.192C1946.75 107.256 1945.86 92.536 1945.86 72.568V59.64C1945.86 43.768 1945.98 29.944 1947.52 26.488H1975.3C1990.4 26.488 1995.65 50.168 1995.65 50.168C1995.65 50.168 1995.78 38.52 1996.54 31.352C1997.18 24.952 1998.72 20.984 1998.72 20.984C1998.72 20.984 1991.3 22.008 1980.29 22.264H1927.94C1927.94 22.264 1931.9 24.056 1932.42 27.128C1933.82 35.192 1933.82 49.656 1933.82 72.568C1933.82 93.432 1933.18 107.384 1932.54 115.192ZM2023.51 70.392L2035.16 28.792C2037.33 36.088 2041.3 49.912 2046.04 70.392H2023.51ZM1996.25 122.872H2016.98C2016.98 122.872 2010.71 120.952 2010.71 116.728C2010.71 116.344 2010.71 115.832 2010.84 115.448L2022.23 74.616H2047.06C2051.16 93.176 2054.87 107.64 2054.87 115.832C2054.87 119.928 2048.6 122.872 2048.6 122.872H2075.61C2075.61 122.872 2071.38 120.952 2069.85 115.832C2067.41 107.64 2063.06 92.536 2058.58 72.568C2053.59 50.808 2051.29 36.6 2050.13 29.048C2050.13 28.664 2050.01 28.408 2050.01 28.152C2050.01 23.672 2055.12 22.264 2055.12 22.264H2025.43C2025.43 22.264 2030.04 24.44 2030.04 26.36C2030.04 26.488 2030.04 26.616 2030.04 26.616C2022.23 60.536 2013.78 90.488 2004.69 114.936C2002.9 119.672 1996.25 122.872 1996.25 122.872ZM2159.47 115.704C2157.04 107.512 2152.81 92.408 2148.33 72.44C2143.34 50.68 2140.91 36.472 2139.76 28.92C2139.76 28.536 2139.63 28.28 2139.63 28.024C2139.63 23.544 2144.88 22.264 2144.88 22.264H2115.05C2115.05 22.264 2120.05 24.312 2120.05 27.512C2120.05 33.4 2115.18 49.016 2108.53 72.056C2102.77 91.896 2097.52 106.744 2094.57 114.936C2093.17 119.032 2085.87 123 2085.87 123H2106.73C2106.73 123 2100.59 121.08 2100.59 116.856C2100.59 116.472 2100.59 115.96 2100.72 115.576L2125.04 29.176C2127.34 36.856 2131.44 51.192 2136.3 72.44C2140.78 92.024 2144.62 107.128 2144.62 115.704C2144.62 119.8 2138.35 123 2138.35 123H2165.36C2165.36 123 2161.01 120.824 2159.47 115.704ZM2181.51 118.264C2181 120.568 2176.9 122.872 2176.9 122.872H2225.28C2238.47 122.872 2247.94 124.536 2247.94 124.536C2247.94 124.536 2246.4 118.136 2245.64 113.016C2244.87 106.616 2244.74 95.224 2244.74 95.224C2244.74 95.224 2239.49 118.776 2224.52 118.904H2196.61C2196.1 112.76 2195.08 98.424 2194.95 74.744H2214.4C2224.77 75.128 2227.59 81.784 2227.59 81.784V63.352C2227.59 63.352 2225.16 70.008 2214.28 70.264L2194.95 70.392C2195.08 49.272 2195.97 33.656 2196.61 26.488H2224.39C2239.49 26.488 2244.74 49.784 2244.74 49.784C2244.74 49.784 2244.87 38.52 2245.64 31.992C2246.4 26.872 2247.94 20.6 2247.94 20.6C2247.94 20.6 2238.47 22.264 2225.28 22.264H2176.9C2176.9 22.264 2181 24.184 2181.25 26.488C2181.89 33.784 2182.92 49.912 2182.92 72.312C2182.92 97.528 2182.02 111.992 2181.51 118.264ZM2293.7 73.464C2307.91 73.464 2319.3 61.944 2319.3 47.864C2319.3 33.656 2307.78 22.008 2293.58 22.008L2268.74 22.264H2259.4C2259.4 22.264 2263.37 23.672 2263.62 25.336C2264.52 32.888 2265.42 48.504 2265.42 72.568C2265.42 96.888 2264.39 111.864 2263.88 118.52C2263.5 120.696 2259.4 122.872 2259.4 122.872H2283.46C2283.46 122.872 2279.37 121.336 2279.11 118.904C2278.22 113.4 2277.45 99.96 2277.45 78.712V73.592L2293.7 73.464ZM2289.61 26.36C2300.49 26.872 2309.06 36.856 2309.06 47.864C2309.06 58.744 2299.98 69.368 2288.97 69.368H2277.45C2277.58 48.76 2278.6 33.4 2279.11 26.488C2281.54 26.36 2284.23 26.36 2286.66 26.36H2289.61ZM2335.38 118.264C2334.87 120.568 2330.78 122.872 2330.78 122.872H2379.16C2392.34 122.872 2401.82 124.536 2401.82 124.536C2401.82 124.536 2400.28 118.136 2399.51 113.016C2398.74 106.616 2398.62 95.224 2398.62 95.224C2398.62 95.224 2393.37 118.776 2378.39 118.904H2350.49C2349.98 112.76 2348.95 98.424 2348.82 74.744H2368.28C2378.65 75.128 2381.46 81.784 2381.46 81.784V63.352C2381.46 63.352 2379.03 70.008 2368.15 70.264L2348.82 70.392C2348.95 49.272 2349.85 33.656 2350.49 26.488H2378.26C2393.37 26.488 2398.62 49.784 2398.62 49.784C2398.62 49.784 2398.74 38.52 2399.51 31.992C2400.28 26.872 2401.82 20.6 2401.82 20.6C2401.82 20.6 2392.34 22.264 2379.16 22.264H2330.78C2330.78 22.264 2334.87 24.184 2335.13 26.488C2335.77 33.784 2336.79 49.912 2336.79 72.312C2336.79 97.528 2335.9 111.992 2335.38 118.264ZM2442.46 47.864C2442.46 36.856 2451.04 27 2461.92 26.488C2463.2 26.36 2464.48 26.36 2465.88 26.36C2469.34 26.36 2473.05 26.616 2476.25 26.872C2476.89 27.768 2477.4 28.792 2477.53 29.944C2478.3 35.832 2478.43 47.224 2478.43 59.896V69.496H2462.56C2451.55 69.496 2442.46 58.872 2442.46 47.864ZM2491.74 115.192C2491.1 107.384 2490.46 93.432 2490.46 72.568C2490.46 52.856 2491.23 37.88 2491.87 29.688C2492.38 24.568 2498.27 22.264 2498.27 22.264H2483.04L2457.95 22.136C2443.74 22.136 2432.22 33.656 2432.22 47.864C2432.22 61.304 2442.46 72.312 2455.64 73.336L2425.31 111.224L2425.05 111.48C2419.16 119.672 2410.72 122.744 2410.72 122.744L2440.67 122.872C2440.67 122.872 2435.04 121.08 2435.04 118.008C2435.04 117.496 2435.16 116.728 2435.68 116.088L2469.72 73.592L2478.43 73.72C2478.43 93.048 2477.66 106.616 2477.15 114.424C2476.76 118.776 2470.88 122.872 2470.88 122.872H2497.88C2497.88 122.872 2492.25 120.44 2491.74 115.192Z" fill="#242424"/>
<path d="M12.544 115.192C12.032 120.44 6.4 122.872 6.4 122.872H33.28C33.28 122.872 27.648 119.544 27.264 115.192C26.752 107.256 25.856 92.536 25.856 72.568V59.64C25.856 43.768 25.984 29.944 27.52 26.488H55.296C70.4 26.488 75.648 50.168 75.648 50.168C75.648 50.168 75.776 38.52 76.544 31.352C77.184 24.952 78.72 20.984 78.72 20.984C78.72 20.984 71.296 22.008 60.288 22.264H7.936C7.936 22.264 11.904 24.056 12.416 27.128C13.824 35.192 13.824 49.656 13.824 72.568C13.824 93.432 13.184 107.384 12.544 115.192ZM103.509 70.392L115.157 28.792C117.333 36.088 121.301 49.912 126.037 70.392H103.509ZM76.245 122.872H96.981C96.981 122.872 90.709 120.952 90.709 116.728C90.709 116.344 90.709 115.832 90.837 115.448L102.229 74.616H127.061C131.157 93.176 134.869 107.64 134.869 115.832C134.869 119.928 128.597 122.872 128.597 122.872H155.605C155.605 122.872 151.381 120.952 149.845 115.832C147.413 107.64 143.061 92.536 138.581 72.568C133.589 50.808 131.285 36.6 130.133 29.048C130.133 28.664 130.005 28.408 130.005 28.152C130.005 23.672 135.125 22.264 135.125 22.264H105.429C105.429 22.264 110.037 24.44 110.037 26.36C110.037 26.488 110.037 26.616 110.037 26.616C102.229 60.536 93.781 90.488 84.693 114.936C82.901 119.672 76.245 122.872 76.245 122.872ZM239.47 115.704C237.038 107.512 232.814 92.408 228.334 72.44C223.342 50.68 220.91 36.472 219.758 28.92C219.758 28.536 219.63 28.28 219.63 28.024C219.63 23.544 224.878 22.264 224.878 22.264H195.054C195.054 22.264 200.046 24.312 200.046 27.512C200.046 33.4 195.182 49.016 188.526 72.056C182.766 91.896 177.518 106.744 174.574 114.936C173.166 119.032 165.87 123 165.87 123H186.734C186.734 123 180.59 121.08 180.59 116.856C180.59 116.472 180.59 115.96 180.718 115.576L205.038 29.176C207.342 36.856 211.438 51.192 216.302 72.44C220.782 92.024 224.622 107.128 224.622 115.704C224.622 119.8 218.35 123 218.35 123H245.358C245.358 123 241.006 120.824 239.47 115.704ZM261.508 118.264C260.996 120.568 256.9 122.872 256.9 122.872H305.284C318.468 122.872 327.94 124.536 327.94 124.536C327.94 124.536 326.404 118.136 325.636 113.016C324.868 106.616 324.74 95.224 324.74 95.224C324.74 95.224 319.492 118.776 304.516 118.904H276.612C276.1 112.76 275.076 98.424 274.948 74.744H294.404C304.772 75.128 307.588 81.784 307.588 81.784V63.352C307.588 63.352 305.156 70.008 294.276 70.264L274.948 70.392C275.076 49.272 275.972 33.656 276.612 26.488H304.388C319.492 26.488 324.74 49.784 324.74 49.784C324.74 49.784 324.868 38.52 325.636 31.992C326.404 26.872 327.94 20.6 327.94 20.6C327.94 20.6 318.468 22.264 305.284 22.264H256.9C256.9 22.264 260.996 24.184 261.252 26.488C261.892 33.784 262.916 49.912 262.916 72.312C262.916 97.528 262.02 111.992 261.508 118.264ZM373.704 73.464C387.912 73.464 399.304 61.944 399.304 47.864C399.304 33.656 387.784 22.008 373.576 22.008L348.744 22.264H339.4C339.4 22.264 343.368 23.672 343.624 25.336C344.52 32.888 345.416 48.504 345.416 72.568C345.416 96.888 344.392 111.864 343.88 118.52C343.496 120.696 339.4 122.872 339.4 122.872H363.464C363.464 122.872 359.368 121.336 359.112 118.904C358.216 113.4 357.448 99.96 357.448 78.712V73.592L373.704 73.464ZM369.608 26.36C380.488 26.872 389.064 36.856 389.064 47.864C389.064 58.744 379.976 69.368 368.968 69.368H357.448C357.576 48.76 358.6 33.4 359.112 26.488C361.544 26.36 364.232 26.36 366.664 26.36H369.608ZM415.383 118.264C414.871 120.568 410.775 122.872 410.775 122.872H459.159C472.343 122.872 481.815 124.536 481.815 124.536C481.815 124.536 480.279 118.136 479.511 113.016C478.743 106.616 478.615 95.224 478.615 95.224C478.615 95.224 473.367 118.776 458.391 118.904H430.487C429.975 112.76 428.951 98.424 428.823 74.744H448.279C458.647 75.128 461.463 81.784 461.463 81.784V63.352C461.463 63.352 459.031 70.008 448.151 70.264L428.823 70.392C428.951 49.272 429.847 33.656 430.487 26.488H458.263C473.367 26.488 478.615 49.784 478.615 49.784C478.615 49.784 478.743 38.52 479.511 31.992C480.279 26.872 481.815 20.6 481.815 20.6C481.815 20.6 472.343 22.264 459.159 22.264H410.775C410.775 22.264 414.871 24.184 415.127 26.488C415.767 33.784 416.791 49.912 416.791 72.312C416.791 97.528 415.895 111.992 415.383 118.264ZM522.459 47.864C522.459 36.856 531.035 27 541.915 26.488C543.195 26.36 544.475 26.36 545.883 26.36C549.339 26.36 553.051 26.616 556.251 26.872C556.891 27.768 557.403 28.792 557.531 29.944C558.299 35.832 558.427 47.224 558.427 59.896V69.496H542.555C531.547 69.496 522.459 58.872 522.459 47.864ZM571.739 115.192C571.099 107.384 570.459 93.432 570.459 72.568C570.459 52.856 571.227 37.88 571.867 29.688C572.379 24.568 578.267 22.264 578.267 22.264H563.035L537.947 22.136C523.739 22.136 512.219 33.656 512.219 47.864C512.219 61.304 522.459 72.312 535.643 73.336L505.307 111.224L505.051 111.48C499.163 119.672 490.715 122.744 490.715 122.744L520.667 122.872C520.667 122.872 515.035 121.08 515.035 118.008C515.035 117.496 515.163 116.728 515.675 116.088L549.723 73.592L558.427 73.72C558.427 93.048 557.659 106.616 557.147 114.424C556.763 118.776 550.875 122.872 550.875 122.872H577.883C577.883 122.872 572.251 120.44 571.739 115.192Z" fill="#242424"/>
</svg>
